icons/mist.svg

<svg width="24" height="24" viewBox="0 0 24 24" fill="none" xmlns="http://www.w3.org/2000/svg">
<path fill-rule="evenodd" clip-rule="evenodd" d="M4 5C4 4.44772 4.44772 4 5 4H7C7.55228 4 8 4.44772 8 5C8 5.55228 7.55228 6 7 6H5C4.44772 6 4 5.55228 4 5ZM10 5C10 4.44772 10.4477 4 11 4H21C21.5523 4 22 4.44772 22 5C22 5.55228 21.5523 6 21 6H11C10.4477 6 10 5.55228 10 5ZM2 10C2 9.44772 2.44772 9 3 9H6C6.55228 9 7 9.44772 7 10C7 10.5523 6.55228 11 6 11H3C2.44772 11 2 10.5523 2 10ZM9 10C9 9.44772 9.44772 9 10 9H11C11.5523 9 12 9.44772 12 10C12 10.5523 11.5523 11 11 11H10C9.44772 11 9 10.5523 9 10ZM14 10C14 9.44772 14.4477 9 15 9H19C19.5523 9 20 9.44772 20 10C20 10.5523 19.5523 11 19 11H15C14.4477 11 14 10.5523 14 10ZM4 15C4 14.4477 4.44772 14 5 14H9C9.55228 14 10 14.4477 10 15C10 15.5523 9.55228 16 9 16H5C4.44772 16 4 15.5523 4 15ZM12 15C12 14.4477 12.4477 14 13 14H14C14.5523 14 15 14.4477 15 15C15 15.5523 14.5523 16 14 16H13C12.4477 16 12 15.5523 12 15ZM17 15C17 14.4477 17.4477 14 18 14H21C21.5523 14 22 14.4477 22 15C22 15.5523 21.5523 16 21 16H18C17.4477 16 17 15.5523 17 15ZM2 20C2 19.4477 2.44772 19 3 19H13C13.5523 19 14 19.4477 14 20C14 20.5523 13.5523 21 13 21H3C2.44772 21 2 20.5523 2 20ZM16 20C16 19.4477 16.4477 19 17 19H19C19.5523 19 20 19.4477 20 20C20 20.5523 19.5523 21 19 21H17C16.4477 21 16 20.5523 16 20Z" fill="black"/>
</svg>

<svg
  width="24"
  height="24"
  viewBox="0 0 24 24"
  xmlns="http://www.w3.org/2000/svg"
>
  <path
    fill-rule="evenodd"
    clip-rule="evenodd"
    d="M4 5a1 1 0 0 1 1-1h2a1 1 0 0 1 0 2H5a1 1 0 0 1-1-1zm6 0a1 1 0 0 1 1-1h10a1 1 0 1 1 0 2H11a1 1 0 0 1-1-1zm-8 5a1 1 0 0 1 1-1h3a1 1 0 0 1 0 2H3a1 1 0 0 1-1-1zm7 0a1 1 0 0 1 1-1h1a1 1 0 1 1 0 2h-1a1 1 0 0 1-1-1zm5 0a1 1 0 0 1 1-1h4a1 1 0 1 1 0 2h-4a1 1 0 0 1-1-1zM4 15a1 1 0 0 1 1-1h4a1 1 0 1 1 0 2H5a1 1 0 0 1-1-1zm8 0a1 1 0 0 1 1-1h1a1 1 0 1 1 0 2h-1a1 1 0 0 1-1-1zm5 0a1 1 0 0 1 1-1h3a1 1 0 1 1 0 2h-3a1 1 0 0 1-1-1zM2 20a1 1 0 0 1 1-1h10a1 1 0 1 1 0 2H3a1 1 0 0 1-1-1zm14 0a1 1 0 0 1 1-1h2a1 1 0 1 1 0 2h-2a1 1 0 0 1-1-1z"
  />
</svg>
